X:35
T: High Part of the Road
T: Ard an Bh\'othair
S: "Ceol Rince na hEireann" 1/18
N: "I named this one myself." - B.Breathnach
Z: B.Black
L: 1/8
M: 6/8
R: jig
K: G
B3 cBc|ded cAG|F3 DEF|DGG (3EFG A|
B3 cBc|dcA (3B^cd e|(3gfe d cAG|1 G3 G2A :|2\
GAG GBd||
g3 dgg|gfg bag|f3 d(3efg|afd cAG|
g3 dgg|gfg b2a|f2d cAG|AGG GBd :|
